www/assets/icons/add_road.svg

<svg width="24" height="24" viewBox="0 0 24 24" xmlns="http://www.w3.org/2000/svg" fill='currentColor'><path d="M18.5 16.5V13.5H16.5V16.5H13.5V18.5H16.5V21.5H18.5V18.5H21.5V16.5H18.5Z"/><path d="M18.5 2.5H16.5V11.5H18.5V2.5Z"/><path d="M4.5 2.5H2.5V18.5H4.5V2.5Z"/><path d="M11.5 2.5H9.5V6.5H11.5V2.5Z"/><path d="M11.5 8.5H9.5V12.5H11.5V8.5Z"/><path d="M11.5 14.5H9.5V18.5H11.5V14.5Z"/></svg>

<svg xmlns="http://www.w3.org/2000/svg" width="24" height="24" viewBox="0 0 24 24" fill='currentColor'><path d="M18.5 16.5v-3h-2v3h-3v2h3v3h2v-3h3v-2zm0-14h-2v9h2zm-14 0h-2v16h2zm7 0h-2v4h2zm0 6h-2v4h2zm0 6h-2v4h2z"/></svg>
